; generated by Slic3r Prusa Edition 1.41.3+win64 on 2021-06-09 at 16:02:27

; 

; external perimeters extrusion width = 0.45mm
; perimeters extrusion width = 0.45mm
; infill extrusion width = 0.45mm
; solid infill extrusion width = 0.45mm
; top infill extrusion width = 0.40mm
; first layer extrusion width = 0.42mm

M73 P0 R36
M73 Q0 S36
M201 X1000 Y1000 Z1000 E5000 ; sets maximum accelerations, mm/sec^2
M203 X200 Y200 Z12 E120 ; sets maximum feedrates, mm/sec
M204 P1250 R1250 T1250 ; sets acceleration (P, T) and retract acceleration (R), mm/sec^2
M205 X8.00 Y8.00 Z0.40 E1.50 ; sets the jerk limits, mm/sec
M205 S0 T0 ; sets the minimum extruding and travel feed rate, mm/sec
M107
M115 U3.5.1 ; tell printer latest fw version
M83  ; extruder relative mode
M104 S215 ; set extruder temp
M140 S60 ; set bed temp
M190 S60 ; wait for bed temp
M109 S215 ; wait for extruder temp
G28 W ; home all without mesh bed level
G80 ; mesh bed leveling
G1 Y-3.0 F1000.0 ; go outside print area
G92 E0.0
G1 X60.0 E9.0  F1000.0 ; intro line
M73 Q0 S36
M73 P0 R35
G1 X100.0 E12.5  F1000.0 ; intro line
G92 E0.0
M221 S95
M900 K30; Filament gcode
G21 ; set units to millimeters
G90 ; use absolute coordinates
M83 ; use relative distances for extrusion
;BEFORE_LAYER_CHANGE
G92 E0.0
;0.2


G1 E-0.80000 F2100.00000
G1 Z0.600 F10800.000
;AFTER_LAYER_CHANGE
;0.2
G1 X107.180 Y95.409
G1 Z0.200
G1 E0.80000 F2100.00000
M204 S1000
G1 F1200
G1 X109.615 Y92.930 E0.10893
G1 X110.175 Y92.598 E0.02044
G1 X110.809 Y92.445 E0.02044
G1 X141.004 Y92.436 E0.94673
G1 X175.094 Y93.225 E1.06916
G1 X175.608 Y93.312 E0.01635
G1 X176.086 Y93.519 E0.01635
G1 X176.503 Y93.834 E0.01635
G1 X176.832 Y94.237 E0.01635
G1 X177.083 Y94.788 E0.01896
G1 X177.173 Y95.386 E0.01896
G1 X177.378 Y119.438 E0.75415
G1 X177.375 Y141.305 E0.68563
G1 X177.236 Y141.975 E0.02146
G1 X176.894 Y142.572 E0.02157
G1 X174.361 Y145.047 E0.11105
G1 X173.810 Y145.297 E0.01896
G1 X173.212 Y145.387 E0.01896
G1 X143.189 Y145.387 E0.94135
G1 X108.361 Y145.012 E1.09208
G1 X107.827 Y144.937 E0.01692
G1 X107.327 Y144.734 E0.01692
G1 X106.892 Y144.415 E0.01692
G1 X106.547 Y143.995 E0.01703
G1 X106.299 Y143.452 E0.01873
G1 X106.207 Y142.858 E0.01885
G1 X106.207 Y121.045 E0.68392
G1 X106.813 Y96.542 E0.76851
G1 X106.918 Y95.950 E0.01885
G1 X107.154 Y95.463 E0.01697
; PURGING FINISHED
G1 F8640
G1 X109.448 Y93.102 E-0.76000
G1 E-0.04000 F2100.00000
G1 Z0.800 F10800.000
G1 X111.558 Y129.172
G1 Z0.200
G1 E0.80000 F2100.00000
G1 F1200
G1 X137.233 Y129.172 E0.80500
G1 X137.233 Y140.476 E0.35441
G1 X111.558 Y140.476 E0.80500
G1 X111.558 Y129.232 E0.35253
G1 X111.935 Y129.550 F10800.000
G1 F1200
G1 X136.855 Y129.550 E0.78135
G1 X136.855 Y140.099 E0.33076
G1 X111.935 Y140.099 E0.78135
G1 X111.935 Y129.610 E0.32888
G1 X111.783 Y129.180 F10800.000
G1 F8640
G1 X115.227 Y129.602 E-0.76000
G1 E-0.04000 F2100.00000
G1 Z0.800 F10800.000
G1 X111.558 Y121.422
G1 Z0.200
G1 E0.80000 F2100.00000
G1 F1200
G1 X137.233 Y121.422 E0.80500
G1 X137.233 Y127.726 E0.19764
G1 X111.558 Y127.726 E0.80500
G1 X111.558 Y121.482 E0.19575
G1 X111.935 Y121.800 F10800.000
G1 F1200
G1 X136.855 Y121.800 E0.78135
G1 X136.855 Y127.349 E0.17399
G1 X111.935 Y127.349 E0.78135
G1 X111.935 Y121.860 E0.17211
G1 X111.761 Y121.439 F10800.000
G1 F8640
G1 X115.227 Y121.852 E-0.76000
G1 E-0.04000 F2100.00000
G1 Z0.800 F10800.000
G1 X110.639 Y119.661
G1 Z0.200
G1 E0.80000 F2100.00000
G1 F1200
G1 X139.808 Y119.661 E0.91460
G1 X139.808 Y140.581 E0.65592
G1 X138.152 Y142.237 E0.07343
G1 X108.983 Y142.237 E0.91460
G1 X108.983 Y121.317 E0.65592
G1 X110.596 Y119.704 E0.07155
G1 X110.482 Y119.284 F10800.000
G1 F1200
G1 X140.185 Y119.284 E0.93132
G1 X140.185 Y140.737 E0.67264
G1 X138.308 Y142.614 E0.08323
G1 X108.605 Y142.614 E0.93132
G1 X108.605 Y121.161 E0.67264
G1 X110.440 Y119.327 E0.08135
G1 X110.823 Y119.493 F10800.000
G1 F8640
G1 X113.731 Y119.322 E-0.76000
G1 E-0.04000 F2100.00000
G1 Z0.800 F10800.000
G1 X111.644 Y127.839
G1 Z0.200
G1 E0.80000 F2100.00000
G1 F1200
G1 X112.695 Y128.890 E0.04680
G1 X113.231 Y128.890 E0.01687
G1 X112.350 Y128.009 E0.03924
G1 X112.885 Y128.009 E0.01687
G1 X113.766 Y128.890 E0.03924
G1 X114.302 Y128.890 E0.01687
G1 X113.421 Y128.009 E0.03924
G1 X113.956 Y128.009 E0.01687
G1 X114.838 Y128.890 E0.03924
G1 X115.373 Y128.890 E0.01687
G1 X114.492 Y128.009 E0.03924
G1 X115.028 Y128.009 E0.01687
G1 X115.909 Y128.890 E0.03924
G1 X116.444 Y128.890 E0.01687
G1 X115.563 Y128.009 E0.03924
G1 X116.099 Y128.009 E0.01687
G1 X116.980 Y128.890 E0.03924
G1 X117.516 Y128.890 E0.01687
G1 X116.634 Y128.009 E0.03924
G1 X117.170 Y128.009 E0.01687
G1 X118.051 Y128.890 E0.03924
G1 X118.587 Y128.890 E0.01687
G1 X117.706 Y128.009 E0.03924
G1 X118.241 Y128.009 E0.01687
G1 X119.122 Y128.890 E0.03924
G1 X119.658 Y128.890 E0.01687
G1 X118.777 Y128.009 E0.03924
G1 X119.312 Y128.009 E0.01687
G1 X120.194 Y128.890 E0.03924
G1 X120.729 Y128.890 E0.01687
G1 X119.848 Y128.009 E0.03924
G1 X120.384 Y128.009 E0.01687
G1 X121.265 Y128.890 E0.03924
G1 X121.800 Y128.890 E0.01687
G1 X120.919 Y128.009 E0.03924
G1 X121.455 Y128.009 E0.01687
G1 X122.336 Y128.890 E0.03924
G1 X122.872 Y128.890 E0.01687
G1 X121.990 Y128.009 E0.03924
G1 X122.526 Y128.009 E0.01687
G1 X123.407 Y128.890 E0.03924
G1 X123.943 Y128.890 E0.01687
G1 X123.062 Y128.009 E0.03924
G1 X123.597 Y128.009 E0.01687
G1 X124.478 Y128.890 E0.03924
G1 X125.014 Y128.890 E0.01687
G1 X124.133 Y128.009 E0.03924
G1 X124.668 Y128.009 E0.01687
G1 X125.550 Y128.890 E0.03924
G1 X126.085 Y128.890 E0.01687
G1 X125.204 Y128.009 E0.03924
G1 X125.740 Y128.009 E0.01687
G1 X126.621 Y128.890 E0.03924
G1 X127.156 Y128.890 E0.01687
G1 X126.275 Y128.009 E0.03924
G1 X126.811 Y128.009 E0.01687
G1 X127.692 Y128.890 E0.03924
G1 X128.228 Y128.890 E0.01687
G1 X127.346 Y128.009 E0.03924
G1 X127.882 Y128.009 E0.01687
G1 X128.763 Y128.890 E0.03924
G1 X129.299 Y128.890 E0.01687
G1 X128.418 Y128.009 E0.03924
G1 X128.953 Y128.009 E0.01687
G1 X129.834 Y128.890 E0.03924
G1 X130.370 Y128.890 E0.01687
G1 X129.489 Y128.009 E0.03924
G1 X130.025 Y128.009 E0.01687
G1 X130.906 Y128.890 E0.03924
G1 X131.441 Y128.890 E0.01687
G1 X130.560 Y128.009 E0.03924
G1 X131.096 Y128.009 E0.01687
G1 X131.977 Y128.890 E0.03924
G1 X132.512 Y128.890 E0.01687
G1 X131.631 Y128.009 E0.03924
G1 X132.167 Y128.009 E0.01687
G1 X133.048 Y128.890 E0.03924
G1 X133.584 Y128.890 E0.01687
G1 X132.703 Y128.009 E0.03924
G1 X133.238 Y128.009 E0.01687
G1 X134.119 Y128.890 E0.03924
G1 X134.655 Y128.890 E0.01687
G1 X133.774 Y128.009 E0.03924
G1 X134.309 Y128.009 E0.01687
G1 X135.190 Y128.890 E0.03924
G1 X135.726 Y128.890 E0.01687
G1 X134.845 Y128.009 E0.03924
G1 X135.381 Y128.009 E0.01687
G1 X136.262 Y128.890 E0.03924
G1 X136.797 Y128.890 E0.01687
G1 X135.916 Y128.009 E0.03924
G1 X136.452 Y128.009 E0.01687
G1 X139.526 Y131.082 E0.13690
G1 X139.526 Y130.547 E0.01687
G1 X136.987 Y128.009 E0.11304
G1 X137.515 Y128.001 E0.01663
G1 X139.526 Y130.011 E0.08953
G1 X139.526 Y129.476 E0.01687
G1 X137.515 Y127.465 E0.08953
G1 X137.515 Y126.930 E0.01687
G1 X139.526 Y128.940 E0.08953
G1 X139.526 Y128.404 E0.01687
G1 X137.515 Y126.394 E0.08953
G1 X137.515 Y125.859 E0.01687
G1 X139.526 Y127.869 E0.08953
G1 X139.526 Y127.333 E0.01687
G1 X137.515 Y125.323 E0.08953
G1 X137.515 Y124.787 E0.01687
G1 X139.526 Y126.798 E0.08953
G1 X139.526 Y126.262 E0.01687
G1 X137.515 Y124.252 E0.08953
G1 X137.515 Y123.716 E0.01687
G1 X139.526 Y125.726 E0.08953
G1 X139.526 Y125.191 E0.01687
G1 X137.515 Y123.181 E0.08953
G1 X137.515 Y122.645 E0.01687
G1 X139.526 Y124.655 E0.08953
G1 X139.526 Y124.120 E0.01687
G1 X137.515 Y122.109 E0.08953
G1 X137.515 Y121.574 E0.01687
G1 X139.526 Y123.584 E0.08953
G1 X139.526 Y123.048 E0.01687
G1 X136.421 Y119.944 E0.13826
G1 X136.957 Y119.944 E0.01687
G1 X139.526 Y122.513 E0.11440
G1 X139.526 Y121.977 E0.01687
G1 X137.492 Y119.944 E0.09055
G1 X138.028 Y119.944 E0.01687
G1 X139.526 Y121.442 E0.06670
G1 X139.526 Y120.906 E0.01687
G1 X138.564 Y119.944 E0.04284
G1 X139.099 Y119.944 E0.01687
G1 X139.695 Y120.540 E0.02655
G1 F8640
G1 X139.099 Y119.944 E-0.19465
G1 X138.564 Y119.944 E-0.12367
G1 X139.526 Y120.906 E-0.31414
G1 X139.526 Y121.442 E-0.12367
G1 X139.514 Y121.430 E-0.00387
G1 E-0.04000 F2100.00000
G1 Z0.800 F10800.000
G1 X137.251 Y121.309
G1 Z0.200
G1 E0.80000 F2100.00000
G1 F1200
G1 X135.886 Y119.944 E0.06081
G1 X135.350 Y119.944 E0.01687
G1 X136.546 Y121.140 E0.05325
G1 X136.010 Y121.140 E0.01687
G1 X134.814 Y119.944 E0.05325
G1 X134.279 Y119.944 E0.01687
G1 X135.474 Y121.140 E0.05325
G1 X134.939 Y121.140 E0.01687
G1 X133.743 Y119.944 E0.05325
G1 X133.208 Y119.944 E0.01687
G1 X134.403 Y121.140 E0.05325
G1 X133.868 Y121.140 E0.01687
G1 X132.672 Y119.944 E0.05325
G1 X132.136 Y119.944 E0.01687
G1 X133.332 Y121.140 E0.05325
G1 X132.796 Y121.140 E0.01687
G1 X131.601 Y119.944 E0.05325
G1 X131.065 Y119.944 E0.01687
G1 X132.261 Y121.140 E0.05325
G1 X131.725 Y121.140 E0.01687
G1 X130.530 Y119.944 E0.05325
G1 X129.994 Y119.944 E0.01687
G1 X131.190 Y121.140 E0.05325
G1 X130.654 Y121.140 E0.01687
G1 X129.458 Y119.944 E0.05325
G1 X128.923 Y119.944 E0.01687
G1 X130.118 Y121.140 E0.05325
G1 X129.583 Y121.140 E0.01687
G1 X128.387 Y119.944 E0.05325
G1 X127.852 Y119.944 E0.01687
G1 X129.047 Y121.140 E0.05325
G1 X128.512 Y121.140 E0.01687
G1 X127.316 Y119.944 E0.05325
G1 X126.780 Y119.944 E0.01687
G1 X127.976 Y121.140 E0.05325
G1 X127.440 Y121.140 E0.01687
G1 X126.245 Y119.944 E0.05325
G1 X125.709 Y119.944 E0.01687
G1 X126.905 Y121.140 E0.05325
G1 X126.369 Y121.140 E0.01687
G1 X125.174 Y119.944 E0.05325
G1 X124.638 Y119.944 E0.01687
G1 X125.834 Y121.140 E0.05325
G1 X125.298 Y121.140 E0.01687
G1 X124.102 Y119.944 E0.05325
G1 X123.567 Y119.944 E0.01687
G1 X124.762 Y121.140 E0.05325
G1 X124.227 Y121.140 E0.01687
G1 X123.031 Y119.944 E0.05325
G1 X122.496 Y119.944 E0.01687
G1 X123.691 Y121.140 E0.05325
G1 X123.156 Y121.140 E0.01687
G1 X121.960 Y119.944 E0.05325
G1 X121.424 Y119.944 E0.01687
G1 X122.620 Y121.140 E0.05325
G1 X122.084 Y121.140 E0.01687
G1 X120.889 Y119.944 E0.05325
G1 X120.353 Y119.944 E0.01687
G1 X121.549 Y121.140 E0.05325
G1 X121.013 Y121.140 E0.01687
G1 X119.818 Y119.944 E0.05325
G1 X119.282 Y119.944 E0.01687
G1 X120.478 Y121.140 E0.05325
G1 X119.942 Y121.140 E0.01687
G1 X118.746 Y119.944 E0.05325
G1 X118.211 Y119.944 E0.01687
G1 X119.406 Y121.140 E0.05325
G1 X118.871 Y121.140 E0.01687
G1 X117.675 Y119.944 E0.05325
G1 X117.140 Y119.944 E0.01687
G1 X118.335 Y121.140 E0.05325
G1 X117.800 Y121.140 E0.01687
G1 X116.604 Y119.944 E0.05325
G1 X116.068 Y119.944 E0.01687
G1 X117.264 Y121.140 E0.05325
G1 X116.728 Y121.140 E0.01687
G1 X115.533 Y119.944 E0.05325
G1 X114.997 Y119.944 E0.01687
G1 X116.193 Y121.140 E0.05325
G1 X115.657 Y121.140 E0.01687
G1 X114.462 Y119.944 E0.05325
G1 X113.926 Y119.944 E0.01687
G1 X115.122 Y121.140 E0.05325
G1 X114.586 Y121.140 E0.01687
G1 X113.390 Y119.944 E0.05325
G1 X112.855 Y119.944 E0.01687
G1 X114.050 Y121.140 E0.05325
G1 X113.515 Y121.140 E0.01687
G1 X112.319 Y119.944 E0.05325
G1 X111.783 Y119.944 E0.01687
G1 X112.979 Y121.140 E0.05325
G1 X112.444 Y121.140 E0.01687
G1 X111.248 Y119.944 E0.05325
G1 X110.756 Y119.944 E0.01550
G1 X110.734 Y119.966 E0.00097
G1 X111.908 Y121.140 E0.05228
G1 X111.372 Y121.140 E0.01687
G1 X110.466 Y120.234 E0.04036
G1 X110.198 Y120.501 E0.01193
G1 X111.276 Y121.578 E0.04797
G1 X111.276 Y122.114 E0.01687
G1 X109.931 Y120.769 E0.05990
G1 X109.663 Y121.037 E0.01193
G1 X111.276 Y122.650 E0.07183
G1 X111.276 Y123.185 E0.01687
G1 X109.395 Y121.305 E0.08375
G1 X109.265 Y121.434 E0.00578
G1 X109.265 Y121.711 E0.00870
G1 X111.276 Y123.721 E0.08953
G1 X111.276 Y124.256 E0.01687
G1 X109.265 Y122.246 E0.08953
G1 X109.265 Y122.782 E0.01687
G1 X111.276 Y124.792 E0.08953
G1 X111.276 Y125.328 E0.01687
G1 X109.265 Y123.317 E0.08953
G1 X109.265 Y123.853 E0.01687
G1 X111.276 Y125.863 E0.08953
G1 X111.276 Y126.399 E0.01687
G1 X109.265 Y124.389 E0.08953
G1 X109.265 Y124.924 E0.01687
G1 X111.276 Y126.935 E0.08953
G1 X111.276 Y127.470 E0.01687
G1 X109.265 Y125.460 E0.08953
G1 X109.265 Y125.995 E0.01687
G1 X112.160 Y128.890 E0.12890
G1 X111.624 Y128.890 E0.01687
G1 X109.265 Y126.531 E0.10504
G1 X109.265 Y127.067 E0.01687
G1 X111.276 Y129.077 E0.08953
G1 X111.276 Y129.613 E0.01687
G1 X109.265 Y127.602 E0.08953
G1 X109.265 Y128.138 E0.01687
G1 X111.276 Y130.148 E0.08953
M73 Q2 S35
G1 X111.276 Y130.684 E0.01687
G1 X109.265 Y128.673 E0.08953
G1 X109.265 Y129.209 E0.01687
G1 X111.276 Y131.219 E0.08953
G1 X111.276 Y131.755 E0.01687
G1 X109.265 Y129.745 E0.08953
M73 P2 R34
G1 X109.265 Y130.280 E0.01687
G1 X111.276 Y132.291 E0.08953
G1 X111.276 Y132.826 E0.01687
G1 X109.265 Y130.816 E0.08953
G1 X109.265 Y131.351 E0.01687
G1 X111.276 Y133.362 E0.08953
G1 X111.276 Y133.897 E0.01687
G1 X109.265 Y131.887 E0.08953
G1 X109.265 Y132.423 E0.01687
G1 X111.276 Y134.433 E0.08953
G1 X111.276 Y134.969 E0.01687
G1 X109.265 Y132.958 E0.08953
G1 X109.265 Y133.494 E0.01687
G1 X111.276 Y135.504 E0.08953
G1 X111.276 Y136.040 E0.01687
G1 X109.265 Y134.029 E0.08953
G1 X109.265 Y134.565 E0.01687
G1 X111.276 Y136.575 E0.08953
G1 X111.276 Y137.111 E0.01687
G1 X109.265 Y135.101 E0.08953
G1 X109.265 Y135.636 E0.01687
G1 X111.276 Y137.647 E0.08953
G1 X111.276 Y138.182 E0.01687
G1 X109.265 Y136.172 E0.08953
G1 X109.265 Y136.707 E0.01687
G1 X111.276 Y138.718 E0.08953
G1 X111.276 Y139.253 E0.01687
G1 X109.265 Y137.243 E0.08953
G1 X109.265 Y137.779 E0.01687
G1 X111.276 Y139.789 E0.08953
G1 X111.276 Y140.325 E0.01687
G1 X109.265 Y138.314 E0.08953
G1 X109.265 Y138.850 E0.01687
G1 X112.370 Y141.954 E0.13825
G1 X112.905 Y141.954 E0.01687
G1 X111.710 Y140.759 E0.05325
G1 X112.245 Y140.759 E0.01687
G1 X113.441 Y141.954 E0.05325
G1 X113.976 Y141.954 E0.01687
G1 X112.781 Y140.759 E0.05325
G1 X113.316 Y140.759 E0.01687
G1 X114.512 Y141.954 E0.05325
G1 X115.048 Y141.954 E0.01687
G1 X113.852 Y140.759 E0.05325
G1 X114.388 Y140.759 E0.01687
G1 X115.583 Y141.954 E0.05325
G1 X116.119 Y141.954 E0.01687
G1 X114.923 Y140.759 E0.05325
G1 X115.459 Y140.759 E0.01687
G1 X116.654 Y141.954 E0.05325
G1 X117.190 Y141.954 E0.01687
G1 X115.994 Y140.759 E0.05325
G1 X116.530 Y140.759 E0.01687
G1 X117.726 Y141.954 E0.05325
G1 X118.261 Y141.954 E0.01687
G1 X117.066 Y140.759 E0.05325
G1 X117.601 Y140.759 E0.01687
G1 X118.797 Y141.954 E0.05325
G1 X119.332 Y141.954 E0.01687
G1 X118.137 Y140.759 E0.05325
G1 X118.672 Y140.759 E0.01687
G1 X119.868 Y141.954 E0.05325
G1 X120.404 Y141.954 E0.01687
G1 X119.208 Y140.759 E0.05325
G1 X119.744 Y140.759 E0.01687
G1 X120.939 Y141.954 E0.05325
G1 X121.475 Y141.954 E0.01687
G1 X120.279 Y140.759 E0.05325
G1 X120.815 Y140.759 E0.01687
G1 X122.011 Y141.954 E0.05325
G1 X122.546 Y141.954 E0.01687
G1 X121.350 Y140.759 E0.05325
G1 X121.886 Y140.759 E0.01687
G1 X123.082 Y141.954 E0.05325
G1 X123.617 Y141.954 E0.01687
G1 X122.422 Y140.759 E0.05325
G1 X122.957 Y140.759 E0.01687
G1 X124.153 Y141.954 E0.05325
G1 X124.689 Y141.954 E0.01687
G1 X123.493 Y140.759 E0.05325
G1 X124.028 Y140.759 E0.01687
G1 X125.224 Y141.954 E0.05325
G1 X125.760 Y141.954 E0.01687
G1 X124.564 Y140.759 E0.05325
G1 X125.100 Y140.759 E0.01687
G1 X126.295 Y141.954 E0.05325
G1 X126.831 Y141.954 E0.01687
G1 X125.635 Y140.759 E0.05325
G1 X126.171 Y140.759 E0.01687
G1 X127.367 Y141.954 E0.05325
G1 X127.902 Y141.954 E0.01687
G1 X126.706 Y140.759 E0.05325
G1 X127.242 Y140.759 E0.01687
G1 X128.438 Y141.954 E0.05325
G1 X128.973 Y141.954 E0.01687
G1 X127.778 Y140.759 E0.05325
G1 X128.313 Y140.759 E0.01687
G1 X129.509 Y141.954 E0.05325
G1 X130.045 Y141.954 E0.01687
G1 X128.849 Y140.759 E0.05325
G1 X129.384 Y140.759 E0.01687
G1 X130.580 Y141.954 E0.05325
G1 X131.116 Y141.954 E0.01687
G1 X129.920 Y140.759 E0.05325
G1 X130.456 Y140.759 E0.01687
G1 X131.651 Y141.954 E0.05325
G1 X132.187 Y141.954 E0.01687
G1 X130.991 Y140.759 E0.05325
G1 X131.527 Y140.759 E0.01687
G1 X132.723 Y141.954 E0.05325
G1 X133.258 Y141.954 E0.01687
G1 X132.062 Y140.759 E0.05325
G1 X132.598 Y140.759 E0.01687
G1 X133.794 Y141.954 E0.05325
G1 X134.329 Y141.954 E0.01687
G1 X133.134 Y140.759 E0.05325
G1 X133.669 Y140.759 E0.01687
G1 X134.865 Y141.954 E0.05325
