; generated by Slic3r Prusa Edition 1.41.3+win64 on 2021-06-09 at 17:48:38

; 

; external perimeters extrusion width = 0.45mm
; perimeters extrusion width = 0.45mm
; infill extrusion width = 0.45mm
; solid infill extrusion width = 0.45mm
; top infill extrusion width = 0.40mm
; first layer extrusion width = 0.42mm

M73 P0 R36
M73 Q0 S36
M201 X1000 Y1000 Z1000 E5000 ; sets maximum accelerations, mm/sec^2
M203 X200 Y200 Z12 E120 ; sets maximum feedrates, mm/sec
M204 P1250 R1250 T1250 ; sets acceleration (P, T) and retract acceleration (R), mm/sec^2
M205 X8.00 Y8.00 Z0.40 E1.50 ; sets the jerk limits, mm/sec
M205 S0 T0 ; sets the minimum extruding and travel feed rate, mm/sec
M107
M115 U3.5.1 ; tell printer latest fw version
M83  ; extruder relative mode
M104 S255 ; set extruder temp
M140 S100 ; set bed temp
M190 S100 ; wait for bed temp
M109 S255 ; wait for extruder temp
G28 W ; home all without mesh bed level
G80 ; mesh bed leveling
G1 Y-3.0 F1000.0 ; go outside print area
G92 E0.0
G1 X60.0 E9.0  F1000.0 ; intro line
M73 Q0 S36
M73 P0 R35
G1 X100.0 E12.5  F1000.0 ; intro line
G92 E0.0
M221 S95
M900 K30; Filament gcode
G21 ; set units to millimeters
G90 ; use absolute coordinates
M83 ; use relative distances for extrusion
;BEFORE_LAYER_CHANGE
G92 E0.0
;0.2


G1 E-0.80000 F2100.00000
G1 Z0.600 F10800.000
;AFTER_LAYER_CHANGE
;0.2
G1 X93.514 Y113.006
G1 Z0.200
G1 E0.80000 F2100.00000
M204 S1000
G1 F1200
G1 X94.099 Y112.695 E0.02078
G1 X94.754 Y112.572 E0.02089
G1 X128.151 Y111.896 E1.04736
G1 X158.191 Y111.896 E0.94190
G1 X158.974 Y112.042 E0.02496
G1 X159.655 Y112.460 E0.02507
G1 X160.139 Y113.092 E0.02496
G1 X160.365 Y113.859 E0.02507
G1 X160.373 Y132.947 E0.59849
G1 X158.449 Y158.946 E0.81739
G1 X158.280 Y159.504 E0.01828
G1 X157.967 Y160.000 E0.01839
G1 X155.598 Y162.349 E0.10460
G1 X155.034 Y162.654 E0.02010
G1 X154.403 Y162.782 E0.02021
G1 X121.246 Y164.150 E1.04050
G1 X91.155 Y164.149 E0.94346
G1 X90.668 Y164.081 E0.01544
G1 X90.208 Y163.905 E0.01544
G1 X89.799 Y163.631 E0.01544
G1 X89.461 Y163.273 E0.01544
G1 X89.144 Y162.674 E0.02123
G1 X89.026 Y162.004 E0.02134
G1 X89.026 Y140.157 E0.68500
G1 X90.643 Y116.584 E0.74084
G1 X90.791 Y115.949 E0.02044
G1 X91.117 Y115.389 E0.02032
G1 X93.471 Y113.049 E0.10409
; PURGING FINISHED
G1 F8640
G1 X94.099 Y112.695 E-0.16631
G1 X94.754 Y112.572 E-0.15384
G1 X96.658 Y112.534 E-0.43985
G1 E-0.04000 F2100.00000
G1 Z0.800 F10800.000
G1 X127.451 Y146.945
G1 Z0.200
G1 E0.80000 F2100.00000
G1 F1200
G1 X153.125 Y146.945 E0.80500
G1 X153.125 Y158.248 E0.35441
G1 X127.451 Y158.248 E0.80500
G1 X127.451 Y147.005 E0.35253
G1 X127.828 Y147.322 F10800.000
G1 F1200
G1 X152.748 Y147.322 E0.78135
G1 X152.748 Y157.871 E0.33076
G1 X127.828 Y157.871 E0.78135
G1 X127.828 Y147.382 E0.32888
G1 X127.676 Y146.952 F10800.000
G1 F8640
G1 X131.120 Y147.374 E-0.76000
G1 E-0.04000 F2100.00000
G1 Z0.800 F10800.000
G1 X127.451 Y139.195
G1 Z0.200
G1 E0.80000 F2100.00000
G1 F1200
G1 X153.125 Y139.195 E0.80500
G1 X153.125 Y145.498 E0.19764
G1 X127.451 Y145.498 E0.80500
G1 X127.451 Y139.255 E0.19575
G1 X127.828 Y139.572 F10800.000
G1 F1200
G1 X152.748 Y139.572 E0.78135
G1 X152.748 Y145.121 E0.17399
G1 X127.828 Y145.121 E0.78135
G1 X127.828 Y139.632 E0.17211
G1 X127.654 Y139.212 F10800.000
G1 F8640
G1 X131.120 Y139.624 E-0.76000
G1 E-0.04000 F2100.00000
G1 Z0.800 F10800.000
G1 X126.532 Y137.433
G1 Z0.200
G1 E0.80000 F2100.00000
G1 F1200
G1 X155.701 Y137.433 E0.91460
G1 X155.701 Y158.353 E0.65592
G1 X154.045 Y160.009 E0.07343
G1 X124.875 Y160.009 E0.91460
G1 X124.875 Y139.089 E0.65592
G1 X126.489 Y137.476 E0.07155
G1 X126.375 Y137.056 F10800.000
G1 F1200
G1 X156.078 Y137.056 E0.93132
G1 X156.078 Y158.509 E0.67264
G1 X154.201 Y160.386 E0.08323
G1 X124.498 Y160.386 E0.93132
G1 X124.498 Y138.933 E0.67264
G1 X126.333 Y137.099 E0.08135
G1 X126.716 Y137.265 F10800.000
G1 F8640
G1 X129.624 Y137.094 E-0.76000
G1 E-0.04000 F2100.00000
G1 Z0.800 F10800.000
G1 X127.537 Y145.611
G1 Z0.200
G1 E0.80000 F2100.00000
G1 F1200
G1 X128.588 Y146.662 E0.04680
G1 X129.124 Y146.662 E0.01687
G1 X128.243 Y145.781 E0.03924
G1 X128.778 Y145.781 E0.01687
G1 X129.659 Y146.662 E0.03924
G1 X130.195 Y146.662 E0.01687
G1 X129.314 Y145.781 E0.03924
G1 X129.849 Y145.781 E0.01687
G1 X130.730 Y146.662 E0.03924
G1 X131.266 Y146.662 E0.01687
G1 X130.385 Y145.781 E0.03924
G1 X130.921 Y145.781 E0.01687
G1 X131.802 Y146.662 E0.03924
G1 X132.337 Y146.662 E0.01687
G1 X131.456 Y145.781 E0.03924
G1 X131.992 Y145.781 E0.01687
G1 X132.873 Y146.662 E0.03924
G1 X133.408 Y146.662 E0.01687
G1 X132.527 Y145.781 E0.03924
G1 X133.063 Y145.781 E0.01687
G1 X133.944 Y146.662 E0.03924
G1 X134.480 Y146.662 E0.01687
G1 X133.599 Y145.781 E0.03924
G1 X134.134 Y145.781 E0.01687
G1 X135.015 Y146.662 E0.03924
G1 X135.551 Y146.662 E0.01687
G1 X134.670 Y145.781 E0.03924
G1 X135.205 Y145.781 E0.01687
G1 X136.087 Y146.662 E0.03924
G1 X136.622 Y146.662 E0.01687
G1 X135.741 Y145.781 E0.03924
G1 X136.277 Y145.781 E0.01687
G1 X137.158 Y146.662 E0.03924
G1 X137.693 Y146.662 E0.01687
G1 X136.812 Y145.781 E0.03924
G1 X137.348 Y145.781 E0.01687
G1 X138.229 Y146.662 E0.03924
G1 X138.765 Y146.662 E0.01687
G1 X137.883 Y145.781 E0.03924
G1 X138.419 Y145.781 E0.01687
G1 X139.300 Y146.662 E0.03924
G1 X139.836 Y146.662 E0.01687
G1 X138.955 Y145.781 E0.03924
G1 X139.490 Y145.781 E0.01687
G1 X140.371 Y146.662 E0.03924
G1 X140.907 Y146.662 E0.01687
G1 X140.026 Y145.781 E0.03924
G1 X140.561 Y145.781 E0.01687
G1 X141.443 Y146.662 E0.03924
G1 X141.978 Y146.662 E0.01687
G1 X141.097 Y145.781 E0.03924
G1 X141.633 Y145.781 E0.01687
G1 X142.514 Y146.662 E0.03924
G1 X143.049 Y146.662 E0.01687
G1 X142.168 Y145.781 E0.03924
G1 X142.704 Y145.781 E0.01687
G1 X143.585 Y146.662 E0.03924
G1 X144.121 Y146.662 E0.01687
G1 X143.239 Y145.781 E0.03924
G1 X143.775 Y145.781 E0.01687
G1 X144.656 Y146.662 E0.03924
G1 X145.192 Y146.662 E0.01687
G1 X144.311 Y145.781 E0.03924
G1 X144.846 Y145.781 E0.01687
G1 X145.727 Y146.662 E0.03924
G1 X146.263 Y146.662 E0.01687
G1 X145.382 Y145.781 E0.03924
G1 X145.917 Y145.781 E0.01687
G1 X146.799 Y146.662 E0.03924
G1 X147.334 Y146.662 E0.01687
G1 X146.453 Y145.781 E0.03924
G1 X146.989 Y145.781 E0.01687
G1 X147.870 Y146.662 E0.03924
G1 X148.405 Y146.662 E0.01687
G1 X147.524 Y145.781 E0.03924
G1 X148.060 Y145.781 E0.01687
G1 X148.941 Y146.662 E0.03924
G1 X149.477 Y146.662 E0.01687
G1 X148.595 Y145.781 E0.03924
G1 X149.131 Y145.781 E0.01687
G1 X150.012 Y146.662 E0.03924
G1 X150.548 Y146.662 E0.01687
G1 X149.667 Y145.781 E0.03924
G1 X150.202 Y145.781 E0.01687
G1 X151.083 Y146.662 E0.03924
G1 X151.619 Y146.662 E0.01687
G1 X150.738 Y145.781 E0.03924
G1 X151.273 Y145.781 E0.01687
G1 X152.155 Y146.662 E0.03924
G1 X152.690 Y146.662 E0.01687
G1 X151.809 Y145.781 E0.03924
G1 X152.345 Y145.781 E0.01687
G1 X155.419 Y148.855 E0.13690
G1 X155.419 Y148.319 E0.01687
G1 X152.880 Y145.781 E0.11304
G1 X153.408 Y145.773 E0.01663
G1 X155.419 Y147.783 E0.08953
G1 X155.419 Y147.248 E0.01687
G1 X153.408 Y145.237 E0.08953
G1 X153.408 Y144.702 E0.01687
G1 X155.419 Y146.712 E0.08953
G1 X155.419 Y146.176 E0.01687
G1 X153.408 Y144.166 E0.08953
G1 X153.408 Y143.631 E0.01687
G1 X155.419 Y145.641 E0.08953
G1 X155.419 Y145.105 E0.01687
G1 X153.408 Y143.095 E0.08953
G1 X153.408 Y142.559 E0.01687
G1 X155.419 Y144.570 E0.08953
G1 X155.419 Y144.034 E0.01687
G1 X153.408 Y142.024 E0.08953
G1 X153.408 Y141.488 E0.01687
G1 X155.419 Y143.498 E0.08953
G1 X155.419 Y142.963 E0.01687
G1 X153.408 Y140.953 E0.08953
G1 X153.408 Y140.417 E0.01687
G1 X155.419 Y142.427 E0.08953
G1 X155.419 Y141.892 E0.01687
G1 X153.408 Y139.881 E0.08953
G1 X153.408 Y139.346 E0.01687
G1 X155.419 Y141.356 E0.08953
G1 X155.419 Y140.820 E0.01687
G1 X152.314 Y137.716 E0.13826
G1 X152.850 Y137.716 E0.01687
G1 X155.419 Y140.285 E0.11440
G1 X155.419 Y139.749 E0.01687
G1 X153.385 Y137.716 E0.09055
G1 X153.921 Y137.716 E0.01687
G1 X155.419 Y139.214 E0.06670
G1 X155.419 Y138.678 E0.01687
G1 X154.457 Y137.716 E0.04284
G1 X154.992 Y137.716 E0.01687
G1 X155.588 Y138.312 E0.02655
G1 F8640
G1 X154.992 Y137.716 E-0.19465
G1 X154.457 Y137.716 E-0.12367
G1 X155.419 Y138.678 E-0.31414
G1 X155.419 Y139.214 E-0.12367
G1 X155.407 Y139.202 E-0.00387
G1 E-0.04000 F2100.00000
G1 Z0.800 F10800.000
G1 X153.144 Y139.081
G1 Z0.200
G1 E0.80000 F2100.00000
G1 F1200
G1 X151.779 Y137.716 E0.06081
G1 X151.243 Y137.716 E0.01687
G1 X152.439 Y138.912 E0.05325
G1 X151.903 Y138.912 E0.01687
G1 X150.707 Y137.716 E0.05325
G1 X150.172 Y137.716 E0.01687
G1 X151.367 Y138.912 E0.05325
G1 X150.832 Y138.912 E0.01687
G1 X149.636 Y137.716 E0.05325
G1 X149.101 Y137.716 E0.01687
G1 X150.296 Y138.912 E0.05325
G1 X149.761 Y138.912 E0.01687
G1 X148.565 Y137.716 E0.05325
G1 X148.029 Y137.716 E0.01687
G1 X149.225 Y138.912 E0.05325
G1 X148.689 Y138.912 E0.01687
G1 X147.494 Y137.716 E0.05325
G1 X146.958 Y137.716 E0.01687
G1 X148.154 Y138.912 E0.05325
G1 X147.618 Y138.912 E0.01687
G1 X146.422 Y137.716 E0.05325
G1 X145.887 Y137.716 E0.01687
G1 X147.083 Y138.912 E0.05325
G1 X146.547 Y138.912 E0.01687
G1 X145.351 Y137.716 E0.05325
G1 X144.816 Y137.716 E0.01687
G1 X146.011 Y138.912 E0.05325
G1 X145.476 Y138.912 E0.01687
G1 X144.280 Y137.716 E0.05325
G1 X143.744 Y137.716 E0.01687
G1 X144.940 Y138.912 E0.05325
G1 X144.405 Y138.912 E0.01687
G1 X143.209 Y137.716 E0.05325
G1 X142.673 Y137.716 E0.01687
G1 X143.869 Y138.912 E0.05325
G1 X143.333 Y138.912 E0.01687
G1 X142.138 Y137.716 E0.05325
G1 X141.602 Y137.716 E0.01687
G1 X142.798 Y138.912 E0.05325
G1 X142.262 Y138.912 E0.01687
G1 X141.066 Y137.716 E0.05325
G1 X140.531 Y137.716 E0.01687
G1 X141.727 Y138.912 E0.05325
G1 X141.191 Y138.912 E0.01687
G1 X139.995 Y137.716 E0.05325
G1 X139.460 Y137.716 E0.01687
G1 X140.655 Y138.912 E0.05325
G1 X140.120 Y138.912 E0.01687
G1 X138.924 Y137.716 E0.05325
G1 X138.388 Y137.716 E0.01687
G1 X139.584 Y138.912 E0.05325
G1 X139.049 Y138.912 E0.01687
G1 X137.853 Y137.716 E0.05325
G1 X137.317 Y137.716 E0.01687
G1 X138.513 Y138.912 E0.05325
G1 X137.977 Y138.912 E0.01687
G1 X136.782 Y137.716 E0.05325
G1 X136.246 Y137.716 E0.01687
G1 X137.442 Y138.912 E0.05325
G1 X136.906 Y138.912 E0.01687
G1 X135.710 Y137.716 E0.05325
G1 X135.175 Y137.716 E0.01687
G1 X136.371 Y138.912 E0.05325
G1 X135.835 Y138.912 E0.01687
G1 X134.639 Y137.716 E0.05325
G1 X134.104 Y137.716 E0.01687
G1 X135.299 Y138.912 E0.05325
G1 X134.764 Y138.912 E0.01687
G1 X133.568 Y137.716 E0.05325
G1 X133.032 Y137.716 E0.01687
G1 X134.228 Y138.912 E0.05325
G1 X133.693 Y138.912 E0.01687
G1 X132.497 Y137.716 E0.05325
G1 X131.961 Y137.716 E0.01687
G1 X133.157 Y138.912 E0.05325
G1 X132.621 Y138.912 E0.01687
G1 X131.426 Y137.716 E0.05325
G1 X130.890 Y137.716 E0.01687
G1 X132.086 Y138.912 E0.05325
G1 X131.550 Y138.912 E0.01687
G1 X130.354 Y137.716 E0.05325
G1 X129.819 Y137.716 E0.01687
G1 X131.015 Y138.912 E0.05325
G1 X130.479 Y138.912 E0.01687
G1 X129.283 Y137.716 E0.05325
G1 X128.748 Y137.716 E0.01687
G1 X129.943 Y138.912 E0.05325
G1 X129.408 Y138.912 E0.01687
G1 X128.212 Y137.716 E0.05325
G1 X127.676 Y137.716 E0.01687
G1 X128.872 Y138.912 E0.05325
G1 X128.337 Y138.912 E0.01687
G1 X127.141 Y137.716 E0.05325
G1 X126.649 Y137.716 E0.01550
G1 X126.627 Y137.738 E0.00097
G1 X127.801 Y138.912 E0.05228
G1 X127.265 Y138.912 E0.01687
G1 X126.359 Y138.006 E0.04036
G1 X126.091 Y138.273 E0.01193
G1 X127.169 Y139.351 E0.04797
G1 X127.169 Y139.886 E0.01687
G1 X125.824 Y138.541 E0.05990
G1 X125.556 Y138.809 E0.01193
G1 X127.169 Y140.422 E0.07183
G1 X127.169 Y140.957 E0.01687
G1 X125.288 Y139.077 E0.08375
G1 X125.158 Y139.207 E0.00578
G1 X125.158 Y139.483 E0.00870
G1 X127.169 Y141.493 E0.08953
G1 X127.169 Y142.029 E0.01687
G1 X125.158 Y140.018 E0.08953
G1 X125.158 Y140.554 E0.01687
G1 X127.169 Y142.564 E0.08953
G1 X127.169 Y143.100 E0.01687
G1 X125.158 Y141.090 E0.08953
G1 X125.158 Y141.625 E0.01687
G1 X127.169 Y143.635 E0.08953
G1 X127.169 Y144.171 E0.01687
G1 X125.158 Y142.161 E0.08953
G1 X125.158 Y142.696 E0.01687
G1 X127.169 Y144.707 E0.08953
G1 X127.169 Y145.242 E0.01687
G1 X125.158 Y143.232 E0.08953
G1 X125.158 Y143.768 E0.01687
G1 X128.052 Y146.662 E0.12890
G1 X127.517 Y146.662 E0.01687
G1 X125.158 Y144.303 E0.10504
G1 X125.158 Y144.839 E0.01687
G1 X127.169 Y146.849 E0.08953
G1 X127.169 Y147.385 E0.01687
G1 X125.158 Y145.374 E0.08953
G1 X125.158 Y145.910 E0.01687
G1 X127.169 Y147.920 E0.08953
M73 Q2 S35
G1 X127.169 Y148.456 E0.01687
G1 X125.158 Y146.446 E0.08953
G1 X125.158 Y146.981 E0.01687
G1 X127.169 Y148.991 E0.08953
G1 X127.169 Y149.527 E0.01687
G1 X125.158 Y147.517 E0.08953
M73 P2 R34
G1 X125.158 Y148.052 E0.01687
G1 X127.169 Y150.063 E0.08953
G1 X127.169 Y150.598 E0.01687
G1 X125.158 Y148.588 E0.08953
G1 X125.158 Y149.124 E0.01687
G1 X127.169 Y151.134 E0.08953
G1 X127.169 Y151.669 E0.01687
G1 X125.158 Y149.659 E0.08953
G1 X125.158 Y150.195 E0.01687
G1 X127.169 Y152.205 E0.08953
G1 X127.169 Y152.741 E0.01687
G1 X125.158 Y150.730 E0.08953
G1 X125.158 Y151.266 E0.01687
G1 X127.169 Y153.276 E0.08953
G1 X127.169 Y153.812 E0.01687
G1 X125.158 Y151.802 E0.08953
G1 X125.158 Y152.337 E0.01687
G1 X127.169 Y154.347 E0.08953
G1 X127.169 Y154.883 E0.01687
G1 X125.158 Y152.873 E0.08953
G1 X125.158 Y153.408 E0.01687
G1 X127.169 Y155.419 E0.08953
G1 X127.169 Y155.954 E0.01687
G1 X125.158 Y153.944 E0.08953
G1 X125.158 Y154.480 E0.01687
G1 X127.169 Y156.490 E0.08953
G1 X127.169 Y157.025 E0.01687
G1 X125.158 Y155.015 E0.08953
G1 X125.158 Y155.551 E0.01687
G1 X127.169 Y157.561 E0.08953
G1 X127.169 Y158.097 E0.01687
G1 X125.158 Y156.086 E0.08953
G1 X125.158 Y156.622 E0.01687
G1 X128.263 Y159.726 E0.13825
G1 X128.798 Y159.726 E0.01687
G1 X127.602 Y158.531 E0.05325
G1 X128.138 Y158.531 E0.01687
G1 X129.334 Y159.726 E0.05325
G1 X129.869 Y159.726 E0.01687
G1 X128.674 Y158.531 E0.05325
G1 X129.209 Y158.531 E0.01687
G1 X130.405 Y159.726 E0.05325
G1 X130.941 Y159.726 E0.01687
G1 X129.745 Y158.531 E0.05325
G1 X130.281 Y158.531 E0.01687
G1 X131.476 Y159.726 E0.05325
G1 X132.012 Y159.726 E0.01687
G1 X130.816 Y158.531 E0.05325
G1 X131.352 Y158.531 E0.01687
G1 X132.547 Y159.726 E0.05325
G1 X133.083 Y159.726 E0.01687
G1 X131.887 Y158.531 E0.05325
G1 X132.423 Y158.531 E0.01687
G1 X133.619 Y159.726 E0.05325
G1 X134.154 Y159.726 E0.01687
G1 X132.959 Y158.531 E0.05325
G1 X133.494 Y158.531 E0.01687
G1 X134.690 Y159.726 E0.05325
G1 X135.225 Y159.726 E0.01687
G1 X134.030 Y158.531 E0.05325
G1 X134.565 Y158.531 E0.01687
G1 X135.761 Y159.726 E0.05325
G1 X136.297 Y159.726 E0.01687
G1 X135.101 Y158.531 E0.05325
G1 X135.637 Y158.531 E0.01687
G1 X136.832 Y159.726 E0.05325
G1 X137.368 Y159.726 E0.01687
G1 X136.172 Y158.531 E0.05325
G1 X136.708 Y158.531 E0.01687
G1 X137.903 Y159.726 E0.05325
G1 X138.439 Y159.726 E0.01687
G1 X137.243 Y158.531 E0.05325
G1 X137.779 Y158.531 E0.01687
G1 X138.975 Y159.726 E0.05325
G1 X139.510 Y159.726 E0.01687
G1 X138.315 Y158.531 E0.05325
G1 X138.850 Y158.531 E0.01687
G1 X140.046 Y159.726 E0.05325
G1 X140.581 Y159.726 E0.01687
G1 X139.386 Y158.531 E0.05325
G1 X139.921 Y158.531 E0.01687
G1 X141.117 Y159.726 E0.05325
G1 X141.653 Y159.726 E0.01687
G1 X140.457 Y158.531 E0.05325
G1 X140.993 Y158.531 E0.01687
G1 X142.188 Y159.726 E0.05325
G1 X142.724 Y159.726 E0.01687
G1 X141.528 Y158.531 E0.05325
G1 X142.064 Y158.531 E0.01687
G1 X143.259 Y159.726 E0.05325
G1 X143.795 Y159.726 E0.01687
G1 X142.599 Y158.531 E0.05325
G1 X143.135 Y158.531 E0.01687
G1 X144.331 Y159.726 E0.05325
G1 X144.866 Y159.726 E0.01687
G1 X143.671 Y158.531 E0.05325
G1 X144.206 Y158.531 E0.01687
G1 X145.402 Y159.726 E0.05325
G1 X145.937 Y159.726 E0.01687
G1 X144.742 Y158.531 E0.05325
G1 X145.277 Y158.531 E0.01687
G1 X146.473 Y159.726 E0.05325
G1 X147.009 Y159.726 E0.01687
G1 X145.813 Y158.531 E0.05325
G1 X146.349 Y158.531 E0.01687
G1 X147.544 Y159.726 E0.05325
G1 X148.080 Y159.726 E0.01687
G1 X146.884 Y158.531 E0.05325
G1 X147.420 Y158.531 E0.01687
G1 X148.615 Y159.726 E0.05325
G1 X149.151 Y159.726 E0.01687
G1 X147.955 Y158.531 E0.05325
G1 X148.491 Y158.531 E0.01687
G1 X149.687 Y159.726 E0.05325
G1 X150.222 Y159.726 E0.01687
G1 X149.027 Y158.531 E0.05325
G1 X149.562 Y158.531 E0.01687
G1 X150.758 Y159.726 E0.05325
